svg/folder_heart_outline.svg

<svg xmlns="http://www.w3.org/2000/svg" viewBox="0 0 24 24"><path d="M20 18H4V8h16m0-2h-8l-2-2H4c-1.11 0-2 .89-2 2v12c0 1.1.9 2 2 2h16c1.1 0 2-.9 2-2V8a2 2 0 0 0-2-2m-7 4c-1.1 0-2 .92-2 2.05 0 .57.22 1.07.59 1.45L15 17l3.42-3.5c.36-.37.58-.89.58-1.45 0-1.13-.9-2.05-2-2.05-.54 0-1.05.23-1.41.6l-.59.6-.58-.59A2 2 0 0 0 13 10"/></svg>

<?xml version="1.0" encoding="UTF-8"?><!DOCTYPE svg PUBLIC "-//W3C//DTD SVG 1.1//EN" "http://www.w3.org/Graphics/SVG/1.1/DTD/svg11.dtd"><svg xmlns="http://www.w3.org/2000/svg" xmlns:xlink="http://www.w3.org/1999/xlink" version="1.1" id="mdi-folder-heart-outline" width="24" height="24" viewBox="0 0 24 24"><path d="M20 18H4V8H20M20 6H12L10 4H4C2.89 4 2 4.89 2 6V18C2 19.1 2.9 20 4 20H20C21.1 20 22 19.1 22 18V8C22 6.89 21.1 6 20 6M13 10C11.9 10 11 10.92 11 12.05C11 12.62 11.22 13.12 11.59 13.5L15 17L18.42 13.5C18.78 13.13 19 12.61 19 12.05C19 10.92 18.1 10 17 10C16.46 10 15.95 10.23 15.59 10.6L15 11.2L14.42 10.61C14.05 10.23 13.54 10 13 10Z" /></svg>
